!!!OTL: GESTERN ABEND WAR VETTER MICHEL HIER
!!!ARE: Europa, Mitteleuropa, Deutschland, Westfalen
!!!SCT: Z0163
!!!YEM: Copyright 1995, estate of Helmut Schaffrath.
**kern
*ICvox
*Ivox
*M4/4
*k[b-]
*F:
{8f
8g
=1
4a
4f
4f
8g
8a
=2
4b-
4g
4g}
{8cc
8b-
=3
4a
4f
4f
8e
8f
=4
8g
8f
8e
8d
4c}
{8f
8g
=5
4a
4f
4f
8g
8a
=6
4b-
4g
4g}
{8cc
8cc
=7
8cc
8b-
8a
8g
4f
8a
8g
=8
4f
4f
4f}
{8a
8b-
=9
4cc
4cc
4cc
4ee-
=10
4dd
4b-
4b-}
{8b-
8cc
=11
4dd
4dd
4dd
4ff
=12
4ee
4cc
4cc}
{8f
8g
=13
4a
4f
4f
8g
8a
=14
4b-
4g
4g}
{8cc
8cc
=15
4a
4a
8g
8f
8g
8a
=16
4f
4f
4f}
==
!!!AGN: Erzaehlung, lustige Romanze
!!!ONB: ESAC (Essen Associative Code) Database: ZUCCAL
!!!AMT: simple quadruple
!!!AIN: vox
!!!EED: Helmut Schaffrath
!!!EEV: 1.0
*-
